symbols/web/code_off/materialsymbolsoutlined/code_off_wght500_48px.svg

<svg xmlns="http://www.w3.org/2000/svg" height="48" width="48"><path d="M41 45.3 14 18.35 8.45 23.9l9.85 9.85-2.45 2.45-12.3-12.3 8-8L2.7 7l2.2-2.25L43.25 43.1Zm-4.55-13.45-2.4-2.45 5.5-5.5-9.85-9.85 2.45-2.45 12.3 12.3Z"/></svg>

<svg xmlns="http://www.w3.org/2000/svg" height="48" width="48"><path d="M41 45.3 14 18.35 8.45 23.9 18.3 33.75 15.85 36.2 3.55 23.9 11.55 15.9 2.7 7 4.9 4.75 43.25 43.1ZM36.45 31.85 34.05 29.4 39.55 23.9 29.7 14.05 32.15 11.6 44.45 23.9Z"/></svg>
